images/online-academy.svg

<svg width="48" height="48" viewBox="0 0 48 48" fill="none" xmlns="http://www.w3.org/2000/svg">
<path d="M36.444 9.18145C36.9529 9.07925 37.2827 8.58382 37.1805 8.07487C37.0783 7.56593 36.5828 7.2362 36.0739 7.3384C35.5649 7.4406 35.2352 7.93604 35.3374 8.44498C35.4396 8.95393 35.935 9.28366 36.444 9.18145Z" fill="#4E6575"/>
<path d="M46.5235 11.8703L40.3991 9.14717C39.9252 8.93642 39.37 9.14979 39.1592 9.62389C38.9483 10.0979 39.1618 10.653 39.6358 10.8638L45.7602 13.587C46.0861 13.7318 46.1213 14.0238 46.1213 14.1426C46.1213 14.2614 46.0861 14.5534 45.7602 14.6983L25.5366 23.6903C25.3795 23.7603 25.1993 23.7602 25.0424 23.6903L4.81884 14.6982C4.49297 14.5534 4.45781 14.2614 4.45781 14.1425C4.45781 14.0238 4.49297 13.7317 4.81894 13.5869L25.0424 4.59486C25.1993 4.52482 25.3795 4.52482 25.5366 4.59486L31.9639 7.45254C32.4379 7.66329 32.9931 7.45001 33.2039 6.97582C33.4147 6.50182 33.2013 5.94673 32.7272 5.73589L26.3 2.8782C25.6579 2.59273 24.9215 2.59264 24.2793 2.8782L4.05562 11.8703C3.14494 12.2752 2.57906 13.146 2.57906 14.1426V29.6895C1.10578 30.0145 0 31.3299 0 32.8994V37.9954C0 39.2902 1.05347 40.3437 2.34834 40.3437H4.68853C5.98341 40.3437 7.03687 39.2902 7.03687 37.9954V32.8994C7.03687 31.3298 5.931 30.0144 4.45772 29.6895V16.5937L8.90109 18.5694V28.143C8.90109 29.476 9.70322 30.6525 10.9445 31.1402L24.2451 36.366C24.6246 36.5148 25.0232 36.5893 25.422 36.5893C25.8209 36.5893 26.2199 36.5148 26.5997 36.3658L30.5593 34.8104L32.2147 40.9884C32.4046 41.6972 32.941 42.2336 33.6497 42.4234C34.3582 42.613 35.0912 42.417 35.6099 41.8981C35.6464 41.8617 35.688 41.8539 35.7164 41.8539C35.7449 41.8539 35.7864 41.8616 35.823 41.8982L38.6706 44.7457C39.0503 45.1254 39.5707 45.3401 40.1063 45.3401C40.1259 45.3401 40.1456 45.3398 40.1653 45.3393C40.7216 45.3229 41.2528 45.0749 41.6226 44.6588L44.5755 41.3358C45.2881 40.5338 45.252 39.3113 44.4935 38.5528L41.8309 35.8903C41.7944 35.8539 41.7867 35.8122 41.7867 35.7838C41.7867 35.7553 41.7944 35.7136 41.8309 35.6772C42.3496 35.1585 42.546 34.4257 42.3561 33.7171C42.1662 33.0083 41.6298 32.4719 40.9211 32.282L38.5862 31.6564L39.7109 31.2144C40.9517 30.727 41.7533 29.5505 41.7533 28.2172V18.5359L46.5234 16.4149C47.4341 16.01 47.9999 15.1393 47.9999 14.1426C48 13.146 47.4342 12.2752 46.5235 11.8703ZM5.15822 32.8994V37.9954C5.15822 38.2543 4.94747 38.465 4.68853 38.465H2.34834C2.08941 38.465 1.87866 38.2543 1.87866 37.9954V32.8994C1.87866 32.1224 2.51072 31.4904 3.28763 31.4904H3.74916C4.52616 31.4904 5.15822 32.1225 5.15822 32.8994ZM40.5415 34.2031C40.564 34.2871 40.5177 34.3333 40.5025 34.3487C40.1192 34.7319 39.9082 35.2415 39.9082 35.7836C39.9082 36.3257 40.1193 36.8353 40.5025 37.2185L43.165 39.881C43.2214 39.9374 43.224 40.0281 43.1711 40.0877L40.2182 43.4106C40.1825 43.4509 40.1396 43.4602 40.11 43.4612C40.0801 43.461 40.037 43.4551 39.999 43.417L37.1514 40.5695C36.7681 40.1862 36.2586 39.9751 35.7164 39.9751C35.1743 39.9751 34.6647 40.1862 34.2814 40.5695C34.2662 40.5847 34.22 40.6313 34.1359 40.6085C34.0519 40.586 34.0349 40.5228 34.0294 40.502L31.7523 32.004C31.7468 31.9832 31.7298 31.9199 31.7913 31.8584C31.8529 31.7966 31.9161 31.8138 31.9368 31.8193L40.4348 34.0964C40.4557 34.1021 40.519 34.1191 40.5415 34.2031ZM39.8748 28.2171C39.8748 28.7726 39.5408 29.2627 39.0241 29.4657L35.5319 30.8378L32.4232 30.0049C31.7143 29.8147 30.9817 30.0113 30.4629 30.5301C29.9442 31.0489 29.7478 31.7817 29.9377 32.4904L30.07 32.9842L25.9133 34.617C25.5966 34.7411 25.2478 34.7412 24.9315 34.6172L11.6315 29.3915C11.1141 29.1884 10.7798 28.6983 10.7798 28.143V19.4047L24.2793 25.4071C24.6004 25.5499 24.945 25.6212 25.2896 25.6212C25.6343 25.6212 25.9789 25.5499 26.3 25.4071L39.8748 19.3713V28.2171Z" fill="#4E6575"/>
<path d="M9 14.5L25 7L41 14.5L24 21L9 14.5Z" fill="#EFF2F3" stroke="#EFF2F3"/>
</svg>

<svg xmlns="http://www.w3.org/2000/svg" width="48" height="48" fill="none"><path fill="#4E6575" d="M36.444 9.181a.94.94 0 1 0-.37-1.843.94.94 0 0 0 .37 1.843Z"/><path fill="#4E6575" d="M46.523 11.87 40.4 9.147a.94.94 0 0 0-.763 1.717l6.124 2.723a.59.59 0 0 1 .361.556.59.59 0 0 1-.36.555L25.536 23.69a.608.608 0 0 1-.495 0L4.82 14.698a.59.59 0 0 1-.361-.556.59.59 0 0 1 .36-.555l20.224-8.992a.607.607 0 0 1 .495 0l6.427 2.858a.94.94 0 1 0 .763-1.717L26.3 2.878a2.49 2.49 0 0 0-2.02 0L4.055 11.87a2.458 2.458 0 0 0-1.477 2.273v15.546A3.293 3.293 0 0 0 0 32.9v5.096a2.351 2.351 0 0 0 2.348 2.349h2.34a2.351 2.351 0 0 0 2.349-2.349V32.9a3.293 3.293 0 0 0-2.58-3.21V16.594l4.444 1.975v9.574c0 1.333.802 2.51 2.043 2.997l13.301 5.226a3.221 3.221 0 0 0 2.355 0l3.96-1.556 1.655 6.178c.19.71.726 1.246 1.435 1.435a2.01 2.01 0 0 0 1.96-.525.148.148 0 0 1 .106-.044c.029 0 .07.008.107.044l2.848 2.848a2.038 2.038 0 0 0 1.494.593 2.038 2.038 0 0 0 1.458-.68l2.953-3.323a2.032 2.032 0 0 0-.083-2.783l-2.662-2.663a.148.148 0 0 1-.044-.106c0-.029.007-.07.044-.107a2.009 2.009 0 0 0 .525-1.96 2.009 2.009 0 0 0-1.435-1.435l-2.335-.626 1.125-.442a3.201 3.201 0 0 0 2.042-2.997v-9.681l4.77-2.121A2.457 2.457 0 0 0 48 14.143c0-.997-.566-1.868-1.477-2.273ZM5.158 32.9v5.095a.47.47 0 0 1-.47.47h-2.34a.47.47 0 0 1-.47-.47V32.9a1.41 1.41 0 0 1 1.41-1.409h.461c.777 0 1.41.633 1.41 1.41Zm35.383 1.303c.023.084-.023.13-.038.146a2.016 2.016 0 0 0-.595 1.435c0 .542.211 1.051.594 1.434l2.663 2.663a.15.15 0 0 1 .006.207l-2.953 3.323a.151.151 0 0 1-.22.006l-2.847-2.848a2.016 2.016 0 0 0-1.435-.594c-.542 0-1.051.211-1.435.594-.015.016-.061.062-.145.04a.14.14 0 0 1-.107-.107l-2.277-8.498c-.005-.02-.022-.084.04-.146.06-.061.124-.044.145-.039l8.498 2.277c.02.006.084.023.106.107Zm-.666-5.986c0 .556-.334 1.046-.85 1.249l-3.493 1.372-3.109-.833a2.008 2.008 0 0 0-1.96.525 2.009 2.009 0 0 0-.525 1.96l.132.494-4.157 1.633a1.342 1.342 0 0 1-.982 0l-13.3-5.225a1.334 1.334 0 0 1-.851-1.249v-8.738l13.5 6.002a2.486 2.486 0 0 0 2.02 0l13.575-6.036v8.846Z"/><path fill="#EFF2F3" stroke="#EFF2F3" d="M9 14.5 25 7l16 7.5L24 21 9 14.5Z"/></svg>
